X:7011
T:Great North Run '86, The
R:Reel
C:Robert Whitehead
O:England, Northumberland
M:4/4
L:1/4
Q:1/4=160
K:G
D|"G"GG "D"F/G/A/F/|"G"G/A/B/c/ dB|"C"ec/e/ "G"dG|"A7"A/B/A/G/ "D7"ED|
"G"GG "D"F/G/A/F/|"G"G/A/B/c/ dB|"C"ec/e/ "G"d/B/G/B/|"D7"AF "G"G:|
|:d|"Em"ge/g/ "Bm"fd|"C"ec/e/ "G"dB|"Am"ec/e/ "G"dG|"D7"A/B/A/G/ ED|
"G"GG "D"F/G/A/F/|"G"G/A/B/c/ dB|"C"ec/e/ "G"d/B/G/B/|"D7"AF "G"G:|

